X:1
T:The Message Bearers
T:The Message Bearers
T:Tullius Clinton O’Kane, ca. 1873
T:Alice Boise Wood, 1899
T:Public Domain Courtesy of the Cyber Hymnal™
T:Public Domain Courtesy of the Cyber Hymnal™
C:Tullius Clinton O’Kane, ca. 1873
Z:Public Domain
Z:Courtesy of the Cyber Hymnal™
%%score ( 1 2 ) ( 3 4 )
L:1/8
Q:1/4=105
M:4/4
K:A
V:1 treble 
V:2 treble 
V:3 bass 
V:4 bass 
V:1
 [CE]2 | [EA]2 [EA]>[EA] [EA]2 [Ec]>[DB] | [CA]4 z2 [EG][EA] | [EB]2 [EB]>[EB] [EB]2 [Ed]>[Ec] | %4
w: 1.~In|lands far a- way o’er the|sea, There are|na- tions who ne- ver have|
w: 2.~They|bow to their i- dols of|stone, To their|i- dols of sil- ver and|
w: 3.~In|sor- row they pass to the|grave, Thro’ the|val- ley of sin and of|
w: 4.~His|ser- vants are hasten- ing to|bear Pre- cious|tid- ings of life o’er the|
 [EB]6 [EA][EB] | [Ec]2 [Ec]>[Ec] [Ec]2 [EB]>[EA] | ([FA]4 [DF]2) [Fd][Fd] | %7
w: heard A- ny|men- tion, dear Sav- ior, of|Thee, * And we|
w: gold; But to|wor- ship the Sav- ior a-|lone * Th- ey|
w: woe; Yet our|Je- sus is wait- ing to|save * I- f|
w: sea; We will|join them in la- bor and|prayer, * Hap- py|
 [Ec]2 [Ec]>[Ac] [GB]2 [Gc]>[EB] | [EA]6 ||"^Refrain" [EG]>[FA] | [GB]6 [CA]>[DB] | %11
w: long so to send them the|word.|||
w: ne- ver, a- las! have been|told.|Bless- èd|Word, bless- èd|
w: on- ly to Him they will|go.|||
w: work- ers for Je- sus are|we.|||
 [Ec]4 z2 [Ac]2 | [Gd]2 [Gd]>[Gd] [Ac]2 [Ae]>[Ac] | B4 G2 e>d | z2 B>A x6 | %15
w: ||||
w: Word, Thou’rt|life to the soul that has|heard; Bless- èd Word,|* bless-|
w: ||||
w: ||||
 F2 [Fd]>[Fd] !fermata![Fd]2 [Fd]2 | [Ec]2 [Ac]>[Ac] [GB]2 [Ec]>[EB] | [EA]6 |] %18
w: |||
w: èd Word, Bless- èd Word,|Thou’rt life to the soul that|has|
w: |||
w: |||
V:2
 x2 | x8 | x8 | x8 | x8 | x8 | x8 | x8 | x6 || x2 | x8 | x8 | x8 | G2 G>G x4 | (c6 E>E E2) | x8 | %16
 x8 | x6 |] %18
V:3
 [A,,A,]2 | [A,,C]2 [A,,C]>[A,,C] [A,,C]2 [E,A,]>[E,G,] | [A,,A,]4 z2 [E,B,][E,A,] | %3
w: ~|~ ~ ~ ~ ~ ~|~ ~~ ~|
 [E,G,]2 [E,G,]>[E,G,] [E,G,]2 [E,B,]>[E,A,] | [E,G,]6 [C,A,][B,,G,] | %5
w: ~ ~ ~ ~ ~ ~|~ ~ ~|
 [A,,A,]2 [A,,A,]>[A,,A,] [A,,A,]2 [B,,G,]>[C,A,] | [D,A,]6 [D,A,][D,A,] | %7
w: ~ ~ ~ ~ ~ ~|~ ~ ~|
 [E,A,]2 [E,A,]>[E,C] [E,D]2 [E,E]>[E,D] | [A,,C]6 || z2 | z2 [E,B,]>[E,B,] [E,B,]2 z2 | %11
w: ~ ~ ~ ~ ~ ~|~||Bless- èd Word,|
 z2 [A,C]>[A,C] [A,C]2 [A,E]2 | [B,E]2 [B,E]>[B,E] [A,E]2 [A,C]>[A,E] | E4 E,2 C>B, | z2 D>C x6 | %15
w: bless- èd Word, ~|~ ~ ~ ~ ~ ~|bless- èd Word; ~|~ ~|
 D2 [D,A,]>[D,A,] !fermata![D,A,]2 [D,A,]2 | (A,C) [E,E]>[E,E] [E,D]2 [E,E]>[E,D] | [A,,C]6 |] %18
w: ~ bless- èd Word, *|||
V:4
 x2 | x8 | x8 | x8 | x8 | x8 | x8 | x8 | x6 || x2 | x8 | x8 | x8 | E,2 E,>E, x4 | %14
 A,6 A,,>A,, A,,2 | x8 | E,2 x6 | x6 |] %18

